!!!SOCIAL_FUNCTION: stomp dance songs
!!!PDT:	1943
!!!LING_GROUP: Muskogean
!!!LANG: Non-Tone
Specific Region: Oklahoma, California, Mississippi, Louisiana, Texas, Alabama
!!!REG: Southeast
!!!COM: Anon.
!!!OTL: Stomp Dance Song (h) [Second rendition]
!!!ODT: <1933//
!!!MPN: Lapintabeseihoke [Kills it Himself, Sidney Wesley]
!! Song was recorded in January 1933.
!!!AGN: monody
!!!AMT: irregular
!!!RWG: Transcribed pitches, durations, and meters are only approximate.
**kern
*ICvox
*Imale
*clefF4
*k[]
*M2/4
*MM72
=1-
8.c
16d
8A
8c
=2
8.c
16A
16A
16G
8A
=3
8.c
16d
8A
8c
=4
8.c
16A
16A
16G
16A
32r
32e
=5
8.e
16c
8d
8d
=6
8.c
16A
16A
16G
16A
32r
32e
=7
8.d
16c
8A
16c
16r
=8
8.c
16A
16A
16G
16A
16r
=9
8.d
16A
8A
8c
=10
8.c
16A
16A
16G
16A
32r
32e
=11
8.d
16c
16r
=12
8.c
16A
16A
16G
16A
16r
=13
8.c
16d
8A
16c
16r
=14
8.c
16A
16A
16G
16A
16r
=15
8.c
16c
8c
16c
16r
=16
8.c
16A
16A
16G
16A
16r
=17
8.d
16d
8A
8c
=18
8.c
16A
16A
16G
16A
16r
=19
16A
16A
8d
8A
16c
16r
=20
8.c
16A
16A
16G
16A
16r
=21
16d
16d
8d
8A
8c
=22
8.c
16A
16A
16G
16A
32r
32A
=23
8A
8r
8A
8r
==
*-
!!!CNT: Choctaw
!!!TXO: Choctaw
!!!OCY: United States
!!!OCL: Frances Densmore
!!!YOR: Frances Densmore, "Choctaw Music"
!!!YOR: Bulletin 136, page 168, No. 51 [Second rendition]
!!!PPR: Smithsonian Institution, Bureau of American Ethnology
!!!PPR: Government Printing Office
!!!PDT: 1943
!!!PPP: Washington, DC, United States of America
!!!YEC: Electronic Copyright 2000 David Huron
!!!YER: August 2000
!!!YEN: United States of America
!!!ENC: David Huron
!!!RDT: August 29, 2000
!!!EEV: Release 1.0
!!!AIN: vox
